src/assets/svg/instagram.svg

<svg width="26" height="25" viewBox="0 0 26 25" fill="none" xmlns="http://www.w3.org/2000/svg">
<path d="M12.8809 6.21973C11.2166 6.21973 9.62038 6.88089 8.44351 8.05776C7.26663 9.23464 6.60547 10.8308 6.60547 12.4952C6.60547 14.1595 7.26663 15.7557 8.44351 16.9326C9.62038 18.1095 11.2166 18.7706 12.8809 18.7706C14.5453 18.7706 16.1415 18.1095 17.3183 16.9326C18.4952 15.7557 19.1564 14.1595 19.1564 12.4952C19.1564 10.8308 18.4952 9.23464 17.3183 8.05776C16.1415 6.88089 14.5453 6.21973 12.8809 6.21973ZM12.8809 16.5707C11.7997 16.5707 10.7627 16.1412 9.99814 15.3766C9.23357 14.612 8.80405 13.5751 8.80405 12.4938C8.80405 11.4126 9.23357 10.3756 9.99814 9.61104C10.7627 8.84648 11.7997 8.41695 12.8809 8.41695C13.9622 8.41695 14.9991 8.84648 15.7637 9.61104C16.5283 10.3756 16.9578 11.4126 16.9578 12.4938C16.9578 13.5751 16.5283 14.612 15.7637 15.3766C14.9991 16.1412 13.9622 16.5707 12.8809 16.5707Z" fill="#141416" fillOpacity="0.7"/>
<path d="M19.3995 7.4514C20.2075 7.4514 20.8625 6.79639 20.8625 5.9884C20.8625 5.1804 20.2075 4.52539 19.3995 4.52539C18.5915 4.52539 17.9365 5.1804 17.9365 5.9884C17.9365 6.79639 18.5915 7.4514 19.3995 7.4514Z" fill="#141416" fillOpacity="0.7"/>
<path d="M24.4582 4.50143C24.144 3.6901 23.6639 2.95331 23.0485 2.33822C22.4332 1.72313 21.6962 1.24329 20.8848 0.929421C19.9353 0.572975 18.9321 0.380239 17.9181 0.359419C16.6111 0.302418 16.1972 0.286133 12.8831 0.286133C9.5689 0.286133 9.14412 0.286133 7.84804 0.359419C6.83478 0.379174 5.83235 0.57195 4.88403 0.929421C4.07237 1.24292 3.33521 1.72263 2.71983 2.33777C2.10446 2.95291 1.62447 3.68989 1.31066 4.50143C0.954144 5.45091 0.76185 6.45415 0.742016 7.46816C0.683659 8.77373 0.666016 9.18766 0.666016 12.5032C0.666016 15.8173 0.666016 16.2394 0.742016 17.5382C0.762373 18.5533 0.953731 19.5549 1.31066 20.5063C1.62535 21.3175 2.10581 22.0542 2.72133 22.6693C3.33685 23.2843 4.0739 23.7642 4.88539 24.0783C5.83191 24.4491 6.83476 24.6556 7.85075 24.689C9.15769 24.746 9.57162 24.7636 12.8858 24.7636C16.1999 24.7636 16.6247 24.7636 17.9208 24.689C18.9347 24.6684 19.9378 24.4761 20.8875 24.1204C21.6988 23.8058 22.4355 23.3255 23.0508 22.7102C23.666 22.095 24.1463 21.3582 24.4609 20.547C24.8178 19.597 25.0092 18.5954 25.0295 17.5803C25.0879 16.2747 25.1055 15.8608 25.1055 12.5452C25.1055 9.22974 25.1055 8.80902 25.0295 7.51023C25.0137 6.48188 24.8204 5.46399 24.4582 4.50143ZM22.8052 17.4378C22.7964 18.2199 22.6537 18.9947 22.3831 19.7286C22.1793 20.2564 21.8673 20.7356 21.4671 21.1356C21.067 21.5355 20.5875 21.8472 20.0597 22.0507C19.3339 22.32 18.5673 22.4628 17.7932 22.4728C16.5039 22.5325 16.1402 22.5474 12.8342 22.5474C9.52548 22.5474 9.18754 22.5474 7.87383 22.4728C7.10015 22.4633 6.33391 22.3205 5.60875 22.0507C5.07903 21.8485 4.59767 21.5373 4.19581 21.1373C3.79394 20.7373 3.48052 20.2574 3.27581 19.7286C3.00906 19.0026 2.86637 18.2369 2.85374 17.4635C2.79538 16.1743 2.78181 15.8105 2.78181 12.5045C2.78181 9.19716 2.78181 8.85923 2.85374 7.54416C2.86251 6.76247 3.00527 5.98808 3.27581 5.25465C3.68974 4.18386 4.53796 3.34107 5.60875 2.93121C6.33426 2.66269 7.10029 2.51995 7.87383 2.50914C9.16447 2.45078 9.52683 2.4345 12.8342 2.4345C16.1416 2.4345 16.4809 2.4345 17.7932 2.50914C18.5673 2.51845 19.3341 2.66124 20.0597 2.93121C20.5875 3.13516 21.0669 3.4472 21.467 3.84733C21.8671 4.24745 22.1791 4.72682 22.3831 5.25465C22.6498 5.98066 22.7925 6.74637 22.8052 7.51973C22.8635 8.81038 22.8784 9.17273 22.8784 12.4801C22.8784 15.7861 22.8784 16.1417 22.8201 17.4391H22.8052V17.4378Z" fill="#141416" fillOpacity="0.7"/>
</svg>

<svg xmlns="http://www.w3.org/2000/svg" width="26" height="25" fill="none"><path fill="#141416" d="M12.88 6.22a6.275 6.275 0 1 0 .001 12.55 6.275 6.275 0 0 0 0-12.55m0 10.35a4.077 4.077 0 1 1 0-8.153 4.077 4.077 0 0 1 0 8.154m6.519-9.12a1.463 1.463 0 1 0 0-2.926 1.463 1.463 0 0 0 0 2.926"/><path fill="#141416" d="M24.458 4.501A6.25 6.25 0 0 0 20.885.93a9 9 0 0 0-2.967-.57c-1.307-.057-1.72-.073-5.035-.073-3.314 0-3.739 0-5.035.073a8.9 8.9 0 0 0-2.964.57 6.24 6.24 0 0 0-3.573 3.572 9 9 0 0 0-.569 2.967C.684 8.774.666 9.188.666 12.503s0 3.736.076 5.035a9 9 0 0 0 .569 2.968 6.26 6.26 0 0 0 3.574 3.572c.947.371 1.95.578 2.966.611 1.307.057 1.72.075 5.035.075 3.314 0 3.739 0 5.035-.075a9 9 0 0 0 2.967-.569 6.26 6.26 0 0 0 3.573-3.573c.357-.95.548-1.952.569-2.967.058-1.305.075-1.72.075-5.035s0-3.736-.076-5.035a9 9 0 0 0-.57-3.009m-1.653 12.937a6.8 6.8 0 0 1-.422 2.29 4.05 4.05 0 0 1-2.323 2.323 6.8 6.8 0 0 1-2.267.422c-1.29.06-1.653.074-4.959.074-3.309 0-3.646 0-4.96-.074a6.7 6.7 0 0 1-2.265-.422 4.05 4.05 0 0 1-2.333-2.322 6.9 6.9 0 0 1-.422-2.265c-.059-1.29-.072-1.653-.072-4.96s0-3.645.072-4.96a6.8 6.8 0 0 1 .422-2.29A4.05 4.05 0 0 1 5.61 2.931a6.8 6.8 0 0 1 2.265-.422c1.29-.058 1.653-.075 4.96-.075s3.647 0 4.96.075c.773.01 1.54.152 2.266.422a4.06 4.06 0 0 1 2.323 2.324c.267.726.41 1.491.422 2.265.058 1.29.073 1.653.073 4.96s0 3.662-.058 4.96h-.015z"/></svg>
